X: 2
T: Dan Collins' Father's
R: jig
M: 6/8
L: 1/8
K: Dmaj
|: d2 A BAB def a3 | aba f2 e d2 B BAB ||: faa faa afe f3 | aba f2 e d2 B BAB ||: G2 D EDE GAB d3 | ded B2 A G2 E EDE ||: Bdd Bdd dBA B3 | ded B2 A G2 E EDE |


Tune 2217	Setting 15583

